X:2633
T:Captain Tom Connolly's
R:reel
C:Ed Reavy
M:2/2
L:1/8
Z:Joe Reavy
N:For an old New York friend of Ed's and a fine fiddle 
N:player himself. This fulfills a promise to Tom made 
N:several years ago.
K:G
Bc|dBgB cAFA|DGBG FGAF|DGBd gdBd|cBAG FGAF|
DGBG B,DFA|GABd cABc|dg (3gfg defd|cAFA G2:||
ef|g2 dg Bgdg|Bcde fdde|fgaf defa|gfge fddf|
gbag fagf|d^cde fefg|(3agf (3gfe defd|cAFA G2:||


